!!!SOCIAL_FUNCTION:	song with women's dance
!!!PDT:	1939
!!!OTL: No_29_Song_of_Women's_Dance_(b).krn
!!!LANG: Non-Tone
!!!LING_GROUP: Wakashan
!!!REG: Pacific Northwest
**kern	**kern
*staff2	*staff1
=1-	=1-
*clefF4	*clefF4
*k[f#]	*k[f#]
*M2/4	*M2/4
2r	4B\
.	16B\LL
.	16A\
.	16G\JJ
.	16r
=2	=2
2r	4A\
.	4G\
=3	=3
2r	2r
=4!|:	=4!|:
8GG/	4B\
8r	.
8GG/	16B\LL
.	16A\
8r	16G\JJ
.	16r
=5	=5
8GG/	8B\L
8r	8A\J
4r	4A\
=6	=6
8GG/L	8G\L
8GG/J	8A\J
8GG/	8A\L
8r	8A\J
=7	=7
8GG/L	8G\L
8GG/J	8G\J
8GG/	[4G\
8r	.
=8||	=8||
*M3/4	*M3/4
8GG/L	8G\L]
8GG/J	16A\L
.	16G\JJ
8GG/	4E\
8r	.
8GG/L	4r
8GG/J	.
=9||	=9||
*M2/4	*M2/4
8GG/	4A\
8r	.
8GG/	8A\L
8r	16G\Jk
.	16r
=10	=10
8GG/	8G\
8r	8r
8GG/	8B\L
8r	8A\J
=11||	=11||
*M3/4	*M3/4
8GG/	8A\L
8r	8A\J
8GG/L	8F#\L
8GG/J	8F#\J
8GG/	8F#\
8r	8r
=12	=12
8GG/	4F#\
8r	.
8GG/	4F#\
8r	.
8GG/L	4r
8GG/J	.
=13||	=13||
*M2/4	*M2/4
8GG/	4A\
8r	.
4r	8A\L
.	8F#\J
=14	=14
2r	4F#\
.	4A\
=15	=15
2r	8A\L
.	8A\J
.	8F#\L
.	8A\J
=16	=16
2r	8A\
.	8r
.	8F#\L
.	8A\J
=17	=17
2r	4B\
.	4B\
=18	=18
8GG/	16B\LL
.	16A\
8r	16G\JJ
.	16r
8GG/L	8G\L
8GG/J	16A\Jk
.	16r
=19	=19
8GG/	8G\L
8r	8G\J
8GG/L	8E\L
8GG/J	8E\J
=20	=20
8GG/	4E\
8r	.
4r	4r
==:|!	==:|!
*-	*-
